src/lib/packages/icons/src/assets/filled/activity-heart-square.svg

<svg width="24" height="24" viewBox="0 0 24 24" fill="none" xmlns="http://www.w3.org/2000/svg">
<path d="M16.62 3H5.38C3.12 3 2 4.12012 2 6.37012V17.6201C2 19.8701 3.12 21 5.38 21H14.152C14.389 21 14.537 20.736 14.403 20.541C14.025 19.989 13.73 19.3529 13.59 18.6399C13.34 17.3399 13.61 16.09 14.33 15.2C14.96 14.43 15.89 14 16.96 14C17.57 14 18.08 14.1599 18.5 14.4099C18.844 14.2089 19.25 14.0641 19.72 14.0161C19.876 14.0001 20 13.8789 20 13.7229V6.37012C20 4.12012 18.88 3 16.62 3ZM16.53 10.53L13.737 13.323C13.056 14.005 11.945 14.006 11.263 13.324L9.67401 11.739C9.57601 11.641 9.41801 11.641 9.32001 11.739L6.52899 14.53C6.38299 14.676 6.19099 14.75 5.99899 14.75C5.80699 14.75 5.61499 14.677 5.46899 14.53C5.17599 14.237 5.17599 13.762 5.46899 13.469L8.26001 10.678C8.94201 9.99598 10.052 9.996 10.734 10.677L12.323 12.262C12.421 12.359 12.579 12.359 12.677 12.262L15.47 9.46899C15.763 9.17599 16.238 9.17599 16.531 9.46899C16.824 9.76199 16.823 10.237 16.53 10.53ZM21.93 18.3501C21.48 20.6601 18.5 22 18.5 22C18.5 22 15.52 20.6601 15.07 18.3501C14.79 16.9301 15.4 15.5 16.95 15.5C16.96 15.5 16.96 15.5 16.96 15.5C18.11 15.5 18.5 16.6399 18.5 16.6399C18.5 16.6399 18.89 15.5 20.04 15.5C20.04 15.5 20.04 15.5 20.05 15.5C21.61 15.5 22.21 16.9301 21.93 18.3501Z" fill="currentColor"/>
</svg>

<svg xmlns="http://www.w3.org/2000/svg" width="24" height="24" fill="none"><path fill="currentColor" d="M16.62 3H5.38C3.12 3 2 4.12 2 6.37v11.25C2 19.87 3.12 21 5.38 21h8.772c.237 0 .385-.264.251-.459a5.102 5.102 0 0 1-.813-1.901c-.25-1.3.02-2.55.74-3.44.63-.77 1.56-1.2 2.63-1.2.61 0 1.12.16 1.54.41.344-.201.75-.346 1.22-.394.156-.016.28-.137.28-.293V6.37C20 4.12 18.88 3 16.62 3Zm-.09 7.53-2.793 2.793a1.752 1.752 0 0 1-2.474.001l-1.589-1.585a.25.25 0 0 0-.354 0L6.529 14.53a.748.748 0 0 1-1.06 0 .75.75 0 0 1 0-1.061l2.791-2.791a1.752 1.752 0 0 1 2.474-.001l1.589 1.585a.252.252 0 0 0 .354 0l2.793-2.793a.75.75 0 1 1 1.06 1.061Zm5.4 7.82C21.48 20.66 18.5 22 18.5 22s-2.98-1.34-3.43-3.65c-.28-1.42.33-2.85 1.88-2.85h.01c1.15 0 1.54 1.14 1.54 1.14s.39-1.14 1.54-1.14h.01c1.56 0 2.16 1.43 1.88 2.85Z"/></svg>
